icons/svg/landuse/sand.svg

<?xml version="1.0" encoding="UTF-8" standalone="no"?>
<!-- Created with Inkscape (http://www.inkscape.org/) -->

<svg
   xmlns:dc="http://purl.org/dc/elements/1.1/"
   xmlns:cc="http://creativecommons.org/ns#"
   xmlns:rdf="http://www.w3.org/1999/02/22-rdf-syntax-ns#"
   xmlns:svg="http://www.w3.org/2000/svg"
   xmlns="http://www.w3.org/2000/svg"
   xmlns:sodipodi="http://sodipodi.sourceforge.net/DTD/sodipodi-0.dtd"
   xmlns:inkscape="http://www.inkscape.org/namespaces/inkscape"
   version="1.0"
   width="580"
   height="580"
   id="svg2"
   sodipodi:version="0.32"
   inkscape:version="0.91 r"
   sodipodi:docname="sand.svg"
   inkscape:output_extension="org.inkscape.output.svg.inkscape">
  <metadata
     id="metadata2975">
    <rdf:RDF>
      <cc:Work
         rdf:about="">
        <dc:format>image/svg+xml</dc:format>
        <dc:type
           rdf:resource="http://purl.org/dc/dcmitype/StillImage" />
        <dc:title />
      </cc:Work>
    </rdf:RDF>
  </metadata>
  <sodipodi:namedview
     inkscape:window-height="1004"
     inkscape:window-width="1920"
     inkscape:pageshadow="2"
     inkscape:pageopacity="0.0"
     guidetolerance="10.0"
     gridtolerance="10.0"
     objecttolerance="10.0"
     borderopacity="1.0"
     bordercolor="#666666"
     pagecolor="#ffffff"
     id="base"
     inkscape:zoom="0.46083856"
     inkscape:cx="729.46333"
     inkscape:cy="271.1023"
     inkscape:window-x="1680"
     inkscape:window-y="0"
     inkscape:current-layer="svg2"
     showgrid="false"
     inkscape:window-maximized="1" />
  <defs
     id="defs4">
    <inkscape:perspective
       sodipodi:type="inkscape:persp3d"
       inkscape:vp_x="0 : 290 : 1"
       inkscape:vp_y="0 : 1000 : 0"
       inkscape:vp_z="580 : 290 : 1"
       inkscape:persp3d-origin="290 : 193.33333 : 1"
       id="perspective2441" />
    <inkscape:perspective
       id="perspective2466"
       inkscape:persp3d-origin="372.04724 : 350.78739 : 1"
       inkscape:vp_z="744.09448 : 526.18109 : 1"
       inkscape:vp_y="0 : 1000 : 0"
       inkscape:vp_x="0 : 526.18109 : 1"
       sodipodi:type="inkscape:persp3d" />
    <inkscape:perspective
       id="perspective3333"
       inkscape:persp3d-origin="372.04724 : 350.78739 : 1"
       inkscape:vp_z="744.09448 : 526.18109 : 1"
       inkscape:vp_y="0 : 1000 : 0"
       inkscape:vp_x="0 : 526.18109 : 1"
       sodipodi:type="inkscape:persp3d" />
    <inkscape:perspective
       id="perspective3401"
       inkscape:persp3d-origin="372.04724 : 350.78739 : 1"
       inkscape:vp_z="744.09448 : 526.18109 : 1"
       inkscape:vp_y="0 : 1000 : 0"
       inkscape:vp_x="0 : 526.18109 : 1"
       sodipodi:type="inkscape:persp3d" />
    <inkscape:perspective
       id="perspective3464"
       inkscape:persp3d-origin="372.04724 : 350.78739 : 1"
       inkscape:vp_z="744.09448 : 526.18109 : 1"
       inkscape:vp_y="0 : 1000 : 0"
       inkscape:vp_x="0 : 526.18109 : 1"
       sodipodi:type="inkscape:persp3d" />
    <inkscape:perspective
       id="perspective3581"
       inkscape:persp3d-origin="225 : 150 : 1"
       inkscape:vp_z="450 : 225 : 1"
       inkscape:vp_y="0 : 1000 : 0"
       inkscape:vp_x="0 : 225 : 1"
       sodipodi:type="inkscape:persp3d" />
    <inkscape:perspective
       id="perspective4312"
       inkscape:persp3d-origin="225 : 150 : 1"
       inkscape:vp_z="450 : 225 : 1"
       inkscape:vp_y="0 : 1000 : 0"
       inkscape:vp_x="0 : 225 : 1"
       sodipodi:type="inkscape:persp3d" />
    <inkscape:perspective
       id="perspective8860"
       inkscape:persp3d-origin="372.04724 : 350.78739 : 1"
       inkscape:vp_z="744.09448 : 526.18109 : 1"
       inkscape:vp_y="0 : 1000 : 0"
       inkscape:vp_x="0 : 526.18109 : 1"
       sodipodi:type="inkscape:persp3d" />
    <inkscape:perspective
       id="perspective8887"
       inkscape:persp3d-origin="372.04724 : 350.78739 : 1"
       inkscape:vp_z="744.09448 : 526.18109 : 1"
       inkscape:vp_y="0 : 1000 : 0"
       inkscape:vp_x="0 : 526.18109 : 1"
       sodipodi:type="inkscape:persp3d" />
    <inkscape:perspective
       sodipodi:type="inkscape:persp3d"
       inkscape:vp_x="0 : 16 : 1"
       inkscape:vp_y="0 : 1000 : 0"
       inkscape:vp_z="32 : 16 : 1"
       inkscape:persp3d-origin="16 : 10.666667 : 1"
       id="perspective4904" />
    <inkscape:perspective
       sodipodi:type="inkscape:persp3d"
       inkscape:vp_x="0 : 6 : 1"
       inkscape:vp_y="0 : 1000 : 0"
       inkscape:vp_z="12 : 6 : 1"
       inkscape:persp3d-origin="6 : 4 : 1"
       id="perspective4668" />
    <inkscape:perspective
       sodipodi:type="inkscape:persp3d"
       inkscape:vp_x="0 : 526.18109 : 1"
       inkscape:vp_y="0 : 1000 : 0"
       inkscape:vp_z="744.09448 : 526.18109 : 1"
       inkscape:persp3d-origin="372.04724 : 350.78739 : 1"
       id="perspective4471" />
    <symbol
       id="symbol-university"
       viewBox="244.5 110 489 219.9">
      <path
         d="M79,43l57,119c0,0,21-96,104-96s124,106,124,106l43-133l82-17L0,17L79,43z"
         id="path4460" />
      <path
         fill="none"
         stroke="#000000"
         stroke-width="20"
         d="M94,176l-21,39"
         id="path4462" />
      <path
         d="M300,19c0,10.5-22.6,19-50.5,19S199,29.5,199,19s22.6-19,50.5-19S300,8.5,300,19z"
         id="path4464" />
      <path
         ill="none"
         stroke="#000000"
         stroke-width="20"
         d="M112,216l-16-38L64,88c0,0-9-8-4-35s16-24,16-24"
         id="path4466" />
    </symbol>
    <inkscape:perspective
       sodipodi:type="inkscape:persp3d"
       inkscape:vp_x="0 : 30 : 1"
       inkscape:vp_y="0 : 1000 : 0"
       inkscape:vp_z="60 : 30 : 1"
       inkscape:persp3d-origin="30 : 20 : 1"
       id="perspective3452" />
    <inkscape:perspective
       id="perspective9479"
       inkscape:persp3d-origin="290 : 193.33333 : 1"
       inkscape:vp_z="580 : 290 : 1"
       inkscape:vp_y="0 : 1000 : 0"
       inkscape:vp_x="0 : 290 : 1"
       sodipodi:type="inkscape:persp3d" />
    <inkscape:perspective
       id="perspective9690"
       inkscape:persp3d-origin="372.04724 : 350.78739 : 1"
       inkscape:vp_z="744.09448 : 526.18109 : 1"
       inkscape:vp_y="0 : 1000 : 0"
       inkscape:vp_x="0 : 526.18109 : 1"
       sodipodi:type="inkscape:persp3d" />
    <inkscape:perspective
       sodipodi:type="inkscape:persp3d"
       inkscape:vp_x="0 : 290 : 1"
       inkscape:vp_y="0 : 1000 : 0"
       inkscape:vp_z="580 : 290 : 1"
       inkscape:persp3d-origin="290 : 193.33333 : 1"
       id="perspective9819" />
    <inkscape:perspective
       id="perspective9817"
       inkscape:persp3d-origin="30 : 20 : 1"
       inkscape:vp_z="60 : 30 : 1"
       inkscape:vp_y="0 : 1000 : 0"
       inkscape:vp_x="0 : 30 : 1"
       sodipodi:type="inkscape:persp3d" />
    <symbol
       viewBox="244.5 110 489 219.9"
       id="symbol9807">
      <path
         id="path9809"
         d="M79,43l57,119c0,0,21-96,104-96s124,106,124,106l43-133l82-17L0,17L79,43z" />
      <path
         id="path9811"
         d="M94,176l-21,39"
         stroke-width="20"
         stroke="#000000"
         fill="none" />
      <path
         id="path9813"
         d="M300,19c0,10.5-22.6,19-50.5,19S199,29.5,199,19s22.6-19,50.5-19S300,8.5,300,19z" />
      <path
         id="path9815"
         d="M112,216l-16-38L64,88c0,0-9-8-4-35s16-24,16-24"
         stroke-width="20"
         stroke="#000000"
         ill="none" />
    </symbol>
    <inkscape:perspective
       id="perspective9805"
       inkscape:persp3d-origin="372.04724 : 350.78739 : 1"
       inkscape:vp_z="744.09448 : 526.18109 : 1"
       inkscape:vp_y="0 : 1000 : 0"
       inkscape:vp_x="0 : 526.18109 : 1"
       sodipodi:type="inkscape:persp3d" />
    <inkscape:perspective
       id="perspective9803"
       inkscape:persp3d-origin="6 : 4 : 1"
       inkscape:vp_z="12 : 6 : 1"
       inkscape:vp_y="0 : 1000 : 0"
       inkscape:vp_x="0 : 6 : 1"
       sodipodi:type="inkscape:persp3d" />
    <inkscape:perspective
       id="perspective9801"
       inkscape:persp3d-origin="16 : 10.666667 : 1"
       inkscape:vp_z="32 : 16 : 1"
       inkscape:vp_y="0 : 1000 : 0"
       inkscape:vp_x="0 : 16 : 1"
       sodipodi:type="inkscape:persp3d" />
    <inkscape:perspective
       sodipodi:type="inkscape:persp3d"
       inkscape:vp_x="0 : 526.18109 : 1"
       inkscape:vp_y="0 : 1000 : 0"
       inkscape:vp_z="744.09448 : 526.18109 : 1"
       inkscape:persp3d-origin="372.04724 : 350.78739 : 1"
       id="perspective9799" />
    <inkscape:perspective
       sodipodi:type="inkscape:persp3d"
       inkscape:vp_x="0 : 526.18109 : 1"
       inkscape:vp_y="0 : 1000 : 0"
       inkscape:vp_z="744.09448 : 526.18109 : 1"
       inkscape:persp3d-origin="372.04724 : 350.78739 : 1"
       id="perspective9797" />
    <inkscape:perspective
       sodipodi:type="inkscape:persp3d"
       inkscape:vp_x="0 : 225 : 1"
       inkscape:vp_y="0 : 1000 : 0"
       inkscape:vp_z="450 : 225 : 1"
       inkscape:persp3d-origin="225 : 150 : 1"
       id="perspective9795" />
    <inkscape:perspective
       sodipodi:type="inkscape:persp3d"
       inkscape:vp_x="0 : 225 : 1"
       inkscape:vp_y="0 : 1000 : 0"
       inkscape:vp_z="450 : 225 : 1"
       inkscape:persp3d-origin="225 : 150 : 1"
       id="perspective9793" />
    <inkscape:perspective
       sodipodi:type="inkscape:persp3d"
       inkscape:vp_x="0 : 526.18109 : 1"
       inkscape:vp_y="0 : 1000 : 0"
       inkscape:vp_z="744.09448 : 526.18109 : 1"
       inkscape:persp3d-origin="372.04724 : 350.78739 : 1"
       id="perspective9791" />
    <inkscape:perspective
       sodipodi:type="inkscape:persp3d"
       inkscape:vp_x="0 : 526.18109 : 1"
       inkscape:vp_y="0 : 1000 : 0"
       inkscape:vp_z="744.09448 : 526.18109 : 1"
       inkscape:persp3d-origin="372.04724 : 350.78739 : 1"
       id="perspective9789" />
    <inkscape:perspective
       sodipodi:type="inkscape:persp3d"
       inkscape:vp_x="0 : 526.18109 : 1"
       inkscape:vp_y="0 : 1000 : 0"
       inkscape:vp_z="744.09448 : 526.18109 : 1"
       inkscape:persp3d-origin="372.04724 : 350.78739 : 1"
       id="perspective9787" />
    <inkscape:perspective
       sodipodi:type="inkscape:persp3d"
       inkscape:vp_x="0 : 526.18109 : 1"
       inkscape:vp_y="0 : 1000 : 0"
       inkscape:vp_z="744.09448 : 526.18109 : 1"
       inkscape:persp3d-origin="372.04724 : 350.78739 : 1"
       id="perspective9785" />
    <inkscape:perspective
       id="perspective9783"
       inkscape:persp3d-origin="290 : 193.33333 : 1"
       inkscape:vp_z="580 : 290 : 1"
       inkscape:vp_y="0 : 1000 : 0"
       inkscape:vp_x="0 : 290 : 1"
       sodipodi:type="inkscape:persp3d" />
  </defs>
  <g
     id="g1327"
     transform="translate(0.0735,-0.43022222)">
    <path
       d="M 66.275,1.768 C 24.94,1.768 1.704,23.139 1.704,66.804 l 0,450.123 c 0,40.844 20.895,62.229 62.192,62.229 l 452.024,0 c 41.307,0 62.229,-20.315 62.229,-62.229 l 0,-450.123 c 0,-42.601 -20.922,-65.036 -63.521,-65.036 -0.004,0 -448.495,-0.143 -448.353,0 z"
       style="fill:#111111;stroke:#eeeeee;stroke-width:3.40799999"
       id="path1329"
       inkscape:connector-curvature="0" />
  </g>
  <path
     style="fill:#ffffff;fill-opacity:1"
     d="m 46.678997,523.32098 c 22.097319,-30.91121 48.376655,-50.08005 82.721693,-60.33945 13.52794,-4.04101 19.09626,-9.16487 32.17439,-29.60612 8.69835,-13.59569 16.52404,-26.52921 17.39045,-28.7412 1.68238,-4.29529 47.33453,-56.30935 64.85654,-73.89474 5.78877,-5.80965 17.49824,-23.05241 26.0211,-38.31723 14.73596,-26.39286 17.91879,-37.91555 29.75478,-107.7191 2.76068,-16.28114 8.69467,-25.02445 43.67288,-64.34878 22.26299,-25.029212 46.01508,-50.761535 52.78246,-57.183025 6.76743,-6.421445 11.62334,-12.777353 10.79095,-14.124147 -0.83237,-1.346854 17.33007,-2.448819 40.36097,-2.448819 23.03096,0 41.84034,0.926422 41.79867,2.058791 -0.0419,1.132296 -12.79657,15.632328 -28.34424,32.222249 -15.54768,16.58992 -33.35831,35.620901 -39.57927,42.291091 -6.22095,6.67018 -15.38798,20.24376 -20.3712,30.16349 -4.9832,9.91973 -12.62328,21.92916 -16.97791,26.68761 -7.44297,8.13314 -39.68803,81.18054 -47.78384,108.24872 -5.63188,18.82986 -40.92959,67.74499 -73.25235,101.51206 -15.9498,16.66249 -53.02433,54.52065 -82.38786,84.12924 -29.36355,29.60862 -52.59927,55.11041 -51.63499,56.67069 0.96433,1.56028 -18.7139,2.8369 -43.729374,2.8369 -45.482718,0 -45.482718,0 -38.263849,-10.09823 z m 188.357953,5.82572 c 16.68359,-26.64617 41.10381,-58.58455 85.97742,-112.4471 48.73355,-58.49564 78.86608,-97.12177 89.64024,-114.90751 2.212,-3.65152 13.71683,-20.88939 25.56634,-38.30639 11.84947,-17.41702 28.56191,-45.26823 37.13875,-61.89152 37.51611,-72.71262 66.0023,-120.714771 71.63636,-120.714771 3.49414,0 3.31589,98.012291 -0.18333,100.577371 -1.53312,1.12382 -9.49209,13.79248 -17.68689,28.1526 -8.19492,14.3601 -18.46382,32.34131 -22.81983,39.95819 -4.35601,7.61689 -13.80537,21.19044 -20.99858,30.16349 -11.77143,14.68398 -33.92466,46.03383 -44.50081,62.97468 -16.44272,26.33793 -54.00336,80.92796 -65.0324,94.51707 -7.36597,9.07578 -13.3927,17.65216 -13.3927,19.0586 0,1.40652 -7.88542,12.98386 -17.52314,25.72752 -9.63777,12.74362 -19.58989,29.52614 -22.1158,37.29439 -4.59256,14.1242 -4.59256,14.1242 -46.48952,14.1242 -28.61908,0 -41.04755,-1.35668 -39.2167,-4.28082 z m 191.70866,-15.82775 c 15.81357,-36.38824 17.64281,-40.05695 32.13199,-64.44495 14.74061,-24.81127 34.0437,-64.13006 45.41247,-92.50139 5.40591,-13.49083 40.13651,-74.40326 42.42281,-74.40326 0.39898,0 0.72554,42.36363 0.72554,94.14143 0,51.77783 -1.10808,93.45652 -2.46263,92.61935 -1.35455,-0.83713 -7.54198,7.92633 -13.75006,19.47437 -6.20805,11.54805 -15.96847,26.4259 -21.68961,33.06189 -10.26541,11.9068 -10.93562,12.06665 -50.98671,12.16155 -40.58453,0.0961 -40.58453,0.0961 -31.80381,-20.10899 z M 69.807154,403.76447 C 56.468077,401.74376 56.310055,399.7886 67.517365,375.43236 85.726342,335.8598 127.3113,284.61471 163.8156,256.76414 c 26.10752,-19.9185 30.61791,-21.87776 57.81444,-25.1142 24.13082,-2.87154 24.13082,-2.87154 11.19409,10.65309 -7.11518,7.43856 -18.87893,21.22049 -26.1417,30.6265 -7.26271,9.40607 -29.17797,37.45811 -48.70051,62.3379 -19.52257,24.87979 -40.08328,51.11787 -45.69047,58.30684 -10.31968,13.2308 -15.000815,14.35361 -42.484296,10.1902 z M 32.499696,256.17901 c 0,-20.82067 1.291641,-37.05746 2.87035,-36.08178 1.578707,0.9757 9.584442,-1.82454 17.79053,-6.22276 8.206121,-4.39819 16.681444,-6.90821 18.834128,-5.57783 2.152623,1.33039 10.051169,2.79154 17.55235,3.24696 11.946206,0.7253 15.996446,-1.89632 32.642736,-21.12864 10.45238,-12.07613 35.61209,-39.39961 55.9105,-60.71882 39.18256,-41.152996 70.5227,-78.799307 67.83613,-81.485835 -0.89209,-0.892133 15.44418,-1.62199 36.30286,-1.62199 20.85865,0 37.92484,0.669602 37.92484,1.488024 0,2.804403 -31.28344,40.778442 -58.876,71.467781 -15.17597,16.87922 -31.13906,35.67001 -35.47353,41.75727 -4.33447,6.0873 -14.2884,15.27564 -22.1199,20.41849 -7.83146,5.14287 -21.47826,14.94931 -30.3262,21.79207 -8.84798,6.84279 -28.57496,17.6601 -43.83774,24.03846 -33.899424,14.16677 -72.336565,39.34005 -83.853399,54.91739 -4.703494,6.36183 -9.592632,11.56694 -10.864745,11.56694 -1.272082,0 -2.31291,-17.03507 -2.31291,-37.85573 z m -0.02835,-88.51512 c 0,-16.3867 1.189559,-29.05886 2.643474,-28.1603 1.453886,0.89856 5.814877,-3.20646 9.691062,-9.12226 3.876185,-5.91579 22.155519,-26.42813 40.620822,-45.582902 18.465263,-19.154797 32.805673,-35.594507 31.867523,-36.532655 -0.93814,-0.938124 11.74721,-1.705709 28.18965,-1.705709 18.07963,0 29.8954,1.658684 29.8954,4.196706 0,2.308178 -12.83764,16.816797 -28.52816,32.241407 -15.69045,15.42461 -39.01698,41.618303 -51.836732,58.208223 -26.481614,34.26964 -42.682158,50.28665 -54.432387,53.81564 -7.622317,2.28922 -8.110652,0.64204 -8.110652,-27.35815 z"
     id="path38509"
     inkscape:connector-curvature="0"
     sodipodi:nodetypes="ssssssssscscssssssscsscsssssssssssssssccssssscsssssssssssssssscssscsssssssssssssscssssss" />
</svg>

<svg width="580" height="580" viewBox="0 0 580 580" fill="none" xmlns="http://www.w3.org/2000/svg">
<g clip-path="url(#clip0)">
<path d="M66.3486 1.33773C25.0136 1.33773 1.77759 22.7087 1.77759 66.3737V516.497C1.77759 557.341 22.6726 578.726 63.9696 578.726H515.994C557.301 578.726 578.223 558.411 578.223 516.497V66.3737C578.223 23.7727 557.301 1.33773 514.702 1.33773C514.698 1.33773 66.2066 1.19473 66.3486 1.33773V1.33773Z" fill="#111111" stroke="#EEEEEE" stroke-width="3.408"/>
<path d="M46.6791 523.321C68.7764 492.41 95.0557 473.241 129.401 462.982C142.929 458.941 148.497 453.817 161.575 433.375C170.274 419.78 178.099 406.846 178.966 404.634C180.648 400.339 226.3 348.325 243.822 330.739C249.611 324.93 261.32 307.687 269.843 292.422C284.579 266.029 287.762 254.507 299.598 184.703C302.359 168.422 308.293 159.679 343.271 120.354C365.534 95.3251 389.286 69.5928 396.053 63.1713C402.821 56.7499 407.677 50.394 406.844 49.0472C406.012 47.7003 424.174 46.5984 447.205 46.5984C470.236 46.5984 489.046 47.5248 489.004 48.6572C488.962 49.7895 476.207 64.2895 460.66 80.8794C445.112 97.4693 427.301 116.5 421.08 123.171C414.86 129.841 405.692 143.414 400.709 153.334C395.726 163.254 388.086 175.263 383.731 180.022C376.288 188.155 344.043 261.202 335.948 288.27C330.316 307.1 295.018 356.015 262.695 389.782C246.745 406.445 209.671 444.303 180.307 473.912C150.944 503.52 127.708 529.022 128.672 530.582C129.637 532.143 109.958 533.419 84.9429 533.419C39.4602 533.419 39.4602 533.419 46.6791 523.321V523.321ZM235.037 529.147C251.721 502.501 276.141 470.562 321.014 416.7C369.748 358.204 399.881 319.578 410.655 301.792C412.867 298.141 424.372 280.903 436.221 263.486C448.071 246.069 464.783 218.217 473.36 201.594C510.876 128.882 539.362 80.8794 544.996 80.8794C548.49 80.8794 548.312 178.892 544.813 181.457C543.28 182.581 535.321 195.249 527.126 209.609C518.931 223.969 508.662 241.951 504.306 249.568C499.95 257.184 490.501 270.758 483.308 279.731C471.536 294.415 449.383 325.765 438.807 342.706C422.364 369.044 384.803 423.634 373.774 437.223C366.408 446.299 360.382 454.875 360.382 456.281C360.382 457.688 352.496 469.265 342.858 482.009C333.221 494.753 323.269 511.535 320.743 519.303C316.15 533.428 316.15 533.427 274.253 533.427C245.634 533.427 233.206 532.071 235.036 529.147H235.037ZM426.746 513.319C442.559 476.931 444.389 473.262 458.878 448.874C473.618 424.063 492.921 384.744 504.29 356.373C509.696 342.882 544.427 281.969 546.713 281.969C547.112 281.969 547.438 324.333 547.438 376.111C547.438 427.889 546.33 469.567 544.976 468.73C543.621 467.893 537.434 476.656 531.226 488.204C525.018 499.753 515.257 514.63 509.536 521.266C499.271 533.173 498.601 533.333 458.549 533.428C417.965 533.524 417.965 533.524 426.746 513.319V513.319ZM69.8072 403.764C56.4682 401.744 56.3101 399.789 67.5175 375.432C85.7264 335.86 127.311 284.615 163.816 256.764C189.923 236.846 194.434 234.886 221.63 231.65C245.761 228.778 245.761 228.778 232.824 242.303C225.709 249.742 213.945 263.524 206.683 272.93C199.42 282.336 177.505 310.388 157.982 335.267C138.459 360.147 117.899 386.385 112.292 393.574C101.972 406.805 97.2907 407.928 69.8072 403.764V403.764ZM32.4998 256.179C32.4998 235.358 33.7914 219.122 35.3701 220.097C36.9488 221.073 44.9546 218.273 53.1607 213.874C61.3668 209.476 69.8421 206.966 71.9948 208.297C74.1474 209.627 82.046 211.088 89.5471 211.544C101.493 212.269 105.544 209.647 122.19 190.415C132.642 178.339 157.802 151.015 178.1 129.696C217.283 88.5431 248.623 50.8968 245.937 48.2103C245.044 47.3182 261.381 46.5883 282.239 46.5883C303.098 46.5883 320.164 47.2579 320.164 48.0763C320.164 50.8807 288.881 88.8548 261.288 119.544C246.112 136.423 230.149 155.214 225.815 161.301C221.48 167.389 211.526 176.577 203.695 181.72C195.863 186.863 182.217 196.669 173.369 203.512C164.521 210.355 144.794 221.172 129.531 227.55C95.6314 241.717 57.1943 266.89 45.6774 282.468C40.9739 288.83 36.0848 294.035 34.8127 294.035C33.5406 294.035 32.4998 277 32.4998 256.179V256.179ZM32.4714 167.664C32.4714 151.277 33.661 138.605 35.1149 139.504C36.5688 140.402 40.9298 136.297 44.806 130.381C48.6822 124.466 66.9615 103.953 85.4268 84.7984C103.892 65.6436 118.232 49.2039 117.294 48.2658C116.356 47.3276 129.042 46.5601 145.484 46.5601C163.564 46.5601 175.379 48.2187 175.379 50.7568C175.379 53.0649 162.542 67.5736 146.851 82.9982C131.161 98.4228 107.834 124.616 95.0145 141.206C68.5329 175.476 52.3323 191.493 40.5821 195.022C32.9598 197.311 32.4714 195.664 32.4714 167.664V167.664Z" fill="white"/>
</g>
<defs>
<clipPath id="clip0">
<path d="M0 0H580V580H0V0Z" fill="white"/>
</clipPath>
</defs>
</svg>
